; generated by PrusaSlicer 2.3.0-rc1+ on 2021-11-20 at 03:43:43 UTC


;
;

;
;
; 

; external perimeters extrusion width = 0.45mm
; perimeters extrusion width = 0.45mm
; infill extrusion width = 0.45mm
; solid infill extrusion width = 0.45mm
; top infill extrusion width = 0.40mm
; support material extrusion width = 0.35mm
; first layer extrusion width = 0.42mm

M73 P0 R128
M201 X1250 Y1250 Z400 E5000 ; sets maximum accelerations, mm/sec^2
M203 X180 Y180 Z12 E80 ; sets maximum feedrates, mm/sec
M204 P1250 R1250 T1250 ; sets acceleration (P, T) and retract acceleration (R), mm/sec^2
M205 X8.00 Y8.00 Z2.00 E10.00 ; sets the jerk limits, mm/sec
M205 S0 T0 ; sets the minimum extruding and travel feed rate, mm/sec
M107
;TYPE:Custom
G90 ; use absolute coordinates
M83 ; extruder relative mode
M104 S170 ; set extruder temp for bed leveling
M140 S60 ; set bed temp
M109 R170 ; wait for bed leveling temp
M190 S60 ; wait for bed temp
G28 ; home all without mesh bed level
G29 ; mesh bed leveling 
M104 S215 ; set extruder temp
G92 E0.0
G1 Y-2.0 X179 F2400
G1 Z3 F720
M109 S215 ; wait for extruder temp

; intro line
G1 X170 F1000
G1 Z0.2 F720
G1 X110.0 E8.0 F900
G1 X40.0 E10.0 F700
G92 E0.0

M221 S95 ; set flow
G21 ; set units to millimeters
G90 ; use absolute coordinates
M83 ; use relative distances for extrusion
M900 K0.2 ; Filament gcode LA 1.5
; ; Filament gcode LA 1.0
;LAYER_CHANGE
;Z:0.2
;HEIGHT:0.2
;BEFORE_LAYER_CHANGE
G92 E0.0
;0.2


G1 E-3.20000 F4200.000
G1 Z0.200 F9000.000
;AFTER_LAYER_CHANGE
;0.2
G1 Z0.400
G1 X57.358 Y56.171
G1 Z0.200
G1 E3.20000 F2400.000
M204 S800
;TYPE:Skirt
;WIDTH:0.42
G1 F1200.000
G1 X57.886 Y55.847 E0.01941
G1 X65.724 Y52.535 E0.26681
G1 X66.429 Y52.367 E0.02272
G1 X109.114 Y52.359 E1.33837
G1 X109.725 Y52.439 E0.01929
G1 X121.772 Y55.724 E0.39155
G1 X122.399 Y55.998 E0.02142
G1 X122.830 Y56.341 E0.01728
G1 X123.168 Y56.771 E0.01716
G1 X126.754 Y62.783 E0.21947
G1 X127.024 Y63.508 E0.02426
G1 X127.063 Y100.212 E1.15084
G1 X123.485 Y122.389 E0.70435
G1 X123.334 Y122.907 E0.01692
G1 X123.071 Y123.374 E0.01680
G1 X122.652 Y123.820 E0.01917
G1 X122.134 Y124.144 E0.01917
G1 X114.299 Y127.626 E0.26882
G1 X113.398 Y127.811 E0.02884
G1 X66.456 Y127.635 E1.47183
G1 X65.711 Y127.460 E0.02402
G1 X57.917 Y124.167 E0.26527
G1 X57.464 Y123.910 E0.01633
G1 X56.845 Y123.250 E0.02837
G1 X53.250 Y117.224 E0.22003
G1 X53.015 Y116.659 E0.01917
G1 X52.932 Y116.053 E0.01917
G1 X52.937 Y77.477 E1.20953
G1 X56.522 Y57.571 E0.63418
G1 X56.673 Y57.077 E0.01621
G1 X56.930 Y56.624 E0.01633
G1 X57.317 Y56.215 E0.01765
M204 S1250
; printing object Body1.stl id:0 copy 0
G1 E-2.24000 F4200.000
;WIPE_START
G1 F7200.000
G1 X57.886 Y55.847 E-0.37530
G1 X58.778 Y55.470 E-0.53670
;WIPE_END
G1 E-0.04800 F4200.000
G1 Z0.400 F9000.000
G1 X66.621 Y57.728
G1 Z0.200
G1 E3.20000 F2400.000
M204 S800
;TYPE:Support material
G1 F1200.000
G1 X66.621 Y54.736 E0.09381
G1 X67.375 Y54.736 E0.02365
G1 X67.375 Y57.558 E0.08849
G1 X68.129 Y57.558 E0.02365
G1 X68.129 Y54.736 E0.08849
G1 X68.884 Y54.736 E0.02365
G1 X68.884 Y57.558 E0.08849
G1 X69.638 Y57.558 E0.02365
G1 X69.638 Y54.736 E0.08849
G1 X70.392 Y54.736 E0.02365
G1 X70.392 Y57.558 E0.08849
G1 X71.013 Y57.558 E0.01948
G1 X71.146 Y57.691 E0.00589
G1 X71.146 Y54.736 E0.09265
G1 X71.900 Y54.736 E0.02365
G1 X71.900 Y65.280 E0.33060
G1 X72.654 Y65.280 E0.02365
G1 X72.654 Y54.736 E0.33060
G1 X73.409 Y54.736 E0.02365
G1 X73.409 Y65.280 E0.33060
G1 X74.163 Y65.280 E0.02365
G1 X74.163 Y54.736 E0.33060
G1 X74.917 Y54.736 E0.02365
G1 X74.917 Y65.280 E0.33060
G1 X75.671 Y65.280 E0.02365
G1 X75.671 Y54.736 E0.33060
G1 X76.425 Y54.736 E0.02365
G1 X76.425 Y65.280 E0.33060
G1 X77.179 Y65.280 E0.02365
G1 X77.179 Y54.736 E0.33060
G1 X77.933 Y54.736 E0.02365
G1 X77.933 Y65.280 E0.33060
G1 X78.688 Y65.280 E0.02365
G1 X78.688 Y54.736 E0.33060
G1 X79.442 Y54.736 E0.02365
G1 X79.442 Y65.280 E0.33060
G1 X80.196 Y65.280 E0.02365
G1 X80.196 Y54.736 E0.33060
G1 X80.950 Y54.736 E0.02365
G1 X80.950 Y65.280 E0.33060
G1 X81.704 Y65.280 E0.02365
G1 X81.704 Y54.736 E0.33060
G1 X82.458 Y54.736 E0.02365
G1 X82.458 Y65.280 E0.33060
G1 X83.213 Y65.280 E0.02365
G1 X83.213 Y54.736 E0.33060
G1 X83.967 Y54.736 E0.02365
G1 X83.967 Y65.280 E0.33060
G1 X84.721 Y65.280 E0.02365
G1 X84.721 Y54.736 E0.33060
G1 X85.475 Y54.736 E0.02365
G1 X85.475 Y65.280 E0.33060
G1 X86.229 Y65.280 E0.02365
G1 X86.229 Y54.736 E0.33060
G1 X86.983 Y54.736 E0.02365
G1 X86.983 Y65.280 E0.33060
G1 X87.738 Y65.280 E0.02365
G1 X87.738 Y54.736 E0.33060
G1 X88.492 Y54.736 E0.02365
G1 X88.492 Y65.280 E0.33060
G1 X89.246 Y65.280 E0.02365
G1 X89.246 Y54.736 E0.33060
G1 X90.000 Y54.736 E0.02365
G1 X90.000 Y65.280 E0.33060
G1 X90.754 Y65.280 E0.02365
G1 X90.754 Y54.736 E0.33060
G1 X91.508 Y54.736 E0.02365
G1 X91.508 Y65.280 E0.33060
M73 P0 R127
G1 X92.262 Y65.280 E0.02365
G1 X92.262 Y54.736 E0.33060
G1 X93.017 Y54.736 E0.02365
G1 X93.017 Y65.280 E0.33060
G1 X93.771 Y65.280 E0.02365
G1 X93.771 Y54.736 E0.33060
G1 X94.525 Y54.736 E0.02365
G1 X94.525 Y65.280 E0.33060
G1 X95.279 Y65.280 E0.02365
G1 X95.279 Y54.736 E0.33060
G1 X96.033 Y54.736 E0.02365
G1 X96.033 Y65.280 E0.33060
G1 X96.787 Y65.280 E0.02365
G1 X96.787 Y54.736 E0.33060
G1 X97.542 Y54.736 E0.02365
G1 X97.542 Y65.280 E0.33060
G1 X98.296 Y65.280 E0.02365
G1 X98.296 Y54.736 E0.33060
G1 X99.050 Y54.736 E0.02365
G1 X99.050 Y65.280 E0.33060
G1 X99.804 Y65.280 E0.02365
G1 X99.804 Y54.736 E0.33060
G1 X100.558 Y54.736 E0.02365
G1 X100.558 Y65.280 E0.33060
G1 X101.312 Y65.280 E0.02365
G1 X101.312 Y54.736 E0.33060
G1 X102.067 Y54.736 E0.02365
G1 X102.067 Y65.280 E0.33060
G1 X102.821 Y65.280 E0.02365
G1 X102.821 Y54.736 E0.33060
G1 X103.575 Y54.736 E0.02365
G1 X103.575 Y65.280 E0.33060
G1 X104.329 Y65.280 E0.02365
G1 X104.329 Y54.736 E0.33060
G1 X105.083 Y54.736 E0.02365
G1 X105.083 Y65.280 E0.33060
G1 X105.837 Y65.280 E0.02365
G1 X105.837 Y54.736 E0.33060
G1 X106.592 Y54.736 E0.02365
G1 X106.591 Y65.280 E0.33060
G1 X107.346 Y65.280 E0.02365
G1 X107.346 Y54.736 E0.33060
G1 X108.100 Y54.736 E0.02365
G1 X108.100 Y65.280 E0.33060
G1 X108.825 Y65.280 E0.02273
G1 X108.718 Y65.173 E0.00473
G1 X108.718 Y57.827 E0.23035
G1 X108.854 Y57.691 E0.00602
G1 X108.854 Y54.736 E0.09265
G1 X109.114 Y54.736 E0.00817
G1 X109.114 Y57.043 E0.07234
G1 X109.608 Y57.043 E0.01548
G1 X109.608 Y57.558 E0.01615
G1 X110.362 Y57.558 E0.02365
G1 X110.362 Y57.043 E0.01615
G1 X111.116 Y57.043 E0.02365
G1 X111.116 Y57.728 E0.02147
M204 S1250
G1 E-2.24000 F4200.000
;WIPE_START
G1 F7200.000
G1 X111.116 Y57.043 E-0.37948
G1 X110.362 Y57.043 E-0.41793
G1 X110.362 Y57.250 E-0.11459
;WIPE_END
G1 E-0.04800 F4200.000
G1 Z0.400 F9000.000
G1 X124.691 Y76.985
G1 Z0.200
G1 E3.20000 F2400.000
M204 S800
G1 F1200.000
G1 X124.691 Y63.964 E0.40826
G1 X123.937 Y63.964 E0.02365
G1 X123.937 Y76.815 E0.40294
G1 X123.183 Y76.815 E0.02365
G1 X123.183 Y63.964 E0.40294
G1 X122.429 Y63.964 E0.02365
G1 X122.429 Y76.815 E0.40294
G1 X121.675 Y76.815 E0.02365
G1 X121.675 Y63.964 E0.40294
G1 X121.602 Y63.964 E0.00228
G1 X121.602 Y70.173 E0.19468
G1 X121.333 Y70.442 E0.01191
G1 X120.921 Y70.442 E0.01294
G1 X120.921 Y76.815 E0.19984
G1 X120.166 Y76.815 E0.02365
G1 X120.166 Y70.442 E0.19984
G1 X119.412 Y70.442 E0.02365
G1 X119.412 Y76.815 E0.19984
G1 X118.658 Y76.815 E0.02365
G1 X118.658 Y70.442 E0.19984
G1 X117.904 Y70.442 E0.02365
G1 X117.904 Y76.815 E0.19984
G1 X117.150 Y76.815 E0.02365
G1 X117.150 Y70.272 E0.20516
M204 S1250
G1 E-2.24000 F4200.000
;WIPE_START
G1 F7200.000
G1 X117.150 Y71.918 E-0.91200
;WIPE_END
G1 E-0.04800 F4200.000
G1 Z0.400 F9000.000
G1 X117.150 Y77.637
G1 Z0.200
G1 E3.20000 F2400.000
M204 S800
G1 F1200.000
G1 X117.150 Y99.886 E0.69760
G1 X117.904 Y99.886 E0.02365
G1 X117.904 Y77.807 E0.69228
G1 X118.658 Y77.807 E0.02365
G1 X118.658 Y99.886 E0.69228
G1 X119.412 Y99.886 E0.02365
G1 X119.412 Y77.807 E0.69228
G1 X120.166 Y77.807 E0.02365
G1 X120.166 Y99.886 E0.69228
G1 X120.921 Y99.886 E0.02365
G1 X120.921 Y77.807 E0.69228
G1 X121.675 Y77.807 E0.02365
G1 X121.675 Y99.886 E0.69228
G1 X122.429 Y99.886 E0.02365
G1 X122.429 Y77.807 E0.69228
M73 P1 R127
G1 X123.183 Y77.807 E0.02365
G1 X123.183 Y99.886 E0.69228
G1 X123.937 Y99.886 E0.02365
G1 X123.937 Y77.807 E0.69228
G1 X124.691 Y77.807 E0.02365
G1 X124.691 Y100.056 E0.69760
M204 S1250
G1 E-2.24000 F4200.000
;WIPE_START
G1 F7200.000
G1 X124.691 Y98.410 E-0.91200
;WIPE_END
G1 E-0.04800 F4200.000
G1 Z0.400 F9000.000
G1 X113.379 Y125.434
G1 Z0.200
G1 E3.20000 F2400.000
M204 S800
G1 F1200.000
G1 X113.379 Y122.442 E0.09381
G1 X112.625 Y122.442 E0.02365
G1 X112.625 Y125.264 E0.08849
G1 X111.871 Y125.264 E0.02365
G1 X111.871 Y122.442 E0.08849
G1 X111.116 Y122.442 E0.02365
G1 X111.116 Y125.264 E0.08849
G1 X110.362 Y125.264 E0.02365
G1 X110.362 Y122.442 E0.08849
G1 X109.608 Y122.442 E0.02365
G1 X109.608 Y125.264 E0.08849
G1 X108.854 Y125.264 E0.02365
G1 X108.854 Y122.309 E0.09265
G1 X108.718 Y122.173 E0.00602
G1 X108.718 Y114.827 E0.23035
G1 X108.825 Y114.720 E0.00473
G1 X108.100 Y114.720 E0.02273
G1 X108.100 Y125.264 E0.33060
G1 X107.346 Y125.264 E0.02365
G1 X107.346 Y114.720 E0.33060
G1 X106.591 Y114.720 E0.02365
G1 X106.591 Y125.264 E0.33060
G1 X105.837 Y125.264 E0.02365
G1 X105.837 Y114.720 E0.33060
G1 X105.083 Y114.720 E0.02365
G1 X105.083 Y125.264 E0.33060
G1 X104.329 Y125.264 E0.02365
G1 X104.329 Y114.720 E0.33060
G1 X103.575 Y114.720 E0.02365
G1 X103.575 Y125.264 E0.33060
G1 X102.821 Y125.264 E0.02365
G1 X102.821 Y114.720 E0.33060
G1 X102.067 Y114.720 E0.02365
G1 X102.067 Y125.264 E0.33060
G1 X101.312 Y125.264 E0.02365
G1 X101.312 Y114.720 E0.33060
G1 X100.558 Y114.720 E0.02365
G1 X100.558 Y125.264 E0.33060
G1 X99.804 Y125.264 E0.02365
G1 X99.804 Y114.720 E0.33060
G1 X99.050 Y114.720 E0.02365
G1 X99.050 Y125.264 E0.33060
G1 X98.296 Y125.264 E0.02365
G1 X98.296 Y114.720 E0.33060
G1 X97.542 Y114.720 E0.02365
G1 X97.542 Y125.264 E0.33060
G1 X96.787 Y125.264 E0.02365
G1 X96.787 Y114.720 E0.33060
G1 X96.033 Y114.720 E0.02365
G1 X96.033 Y125.264 E0.33060
G1 X95.279 Y125.264 E0.02365
G1 X95.279 Y114.720 E0.33060
G1 X94.525 Y114.720 E0.02365
G1 X94.525 Y125.264 E0.33060
G1 X93.771 Y125.264 E0.02365
G1 X93.771 Y114.720 E0.33060
G1 X93.017 Y114.720 E0.02365
G1 X93.017 Y125.264 E0.33060
G1 X92.262 Y125.264 E0.02365
G1 X92.262 Y114.720 E0.33060
G1 X91.508 Y114.720 E0.02365
G1 X91.508 Y125.264 E0.33060
G1 X90.754 Y125.264 E0.02365
G1 X90.754 Y114.720 E0.33060
G1 X90.000 Y114.720 E0.02365
G1 X90.000 Y125.264 E0.33060
G1 X89.246 Y125.264 E0.02365
G1 X89.246 Y114.720 E0.33060
G1 X88.492 Y114.720 E0.02365
G1 X88.492 Y125.264 E0.33060
G1 X87.738 Y125.264 E0.02365
G1 X87.738 Y114.720 E0.33060
G1 X86.983 Y114.720 E0.02365
G1 X86.983 Y125.264 E0.33060
G1 X86.229 Y125.264 E0.02365
G1 X86.229 Y114.720 E0.33060
G1 X85.475 Y114.720 E0.02365
G1 X85.475 Y125.264 E0.33060
G1 X84.721 Y125.264 E0.02365
G1 X84.721 Y114.720 E0.33060
G1 X83.967 Y114.720 E0.02365
G1 X83.967 Y125.264 E0.33060
G1 X83.213 Y125.264 E0.02365
G1 X83.213 Y114.720 E0.33060
G1 X82.458 Y114.720 E0.02365
G1 X82.458 Y125.264 E0.33060
G1 X81.704 Y125.264 E0.02365
G1 X81.704 Y114.720 E0.33060
G1 X80.950 Y114.720 E0.02365
G1 X80.950 Y125.264 E0.33060
G1 X80.196 Y125.264 E0.02365
G1 X80.196 Y114.720 E0.33060
G1 X79.442 Y114.720 E0.02365
G1 X79.442 Y125.264 E0.33060
G1 X78.688 Y125.264 E0.02365
G1 X78.688 Y114.720 E0.33060
G1 X77.933 Y114.720 E0.02365
G1 X77.933 Y125.264 E0.33060
M73 P1 R126
G1 X77.179 Y125.264 E0.02365
G1 X77.179 Y114.720 E0.33060
G1 X76.425 Y114.720 E0.02365
G1 X76.425 Y125.264 E0.33060
G1 X75.671 Y125.264 E0.02365
G1 X75.671 Y114.720 E0.33060
G1 X74.917 Y114.720 E0.02365
G1 X74.917 Y125.264 E0.33060
G1 X74.163 Y125.264 E0.02365
G1 X74.163 Y114.720 E0.33060
G1 X73.409 Y114.720 E0.02365
G1 X73.408 Y125.264 E0.33060
G1 X72.654 Y125.264 E0.02365
G1 X72.654 Y114.720 E0.33060
G1 X71.900 Y114.720 E0.02365
G1 X71.900 Y125.264 E0.33060
G1 X71.146 Y125.264 E0.02365
G1 X71.146 Y122.309 E0.09265
G1 X71.013 Y122.442 E0.00589
G1 X70.392 Y122.442 E0.01948
G1 X70.392 Y125.264 E0.08849
G1 X69.638 Y125.264 E0.02365
G1 X69.638 Y122.442 E0.08849
G1 X68.884 Y122.442 E0.02365
G1 X68.884 Y125.264 E0.08849
G1 X68.129 Y125.264 E0.02365
G1 X68.129 Y122.442 E0.08849
G1 X67.375 Y122.442 E0.02365
G1 X67.375 Y125.264 E0.08849
G1 X66.621 Y125.264 E0.02365
G1 X66.621 Y122.272 E0.09381
M204 S1250
G1 E-2.24000 F4200.000
;WIPE_START
G1 F7200.000
G1 X66.621 Y123.918 E-0.91200
;WIPE_END
G1 E-0.04800 F4200.000
G1 Z0.400 F9000.000
G1 X62.850 Y109.728
G1 Z0.200
G1 E3.20000 F2400.000
M204 S800
G1 F1200.000
G1 X62.850 Y77.807 E1.00086
G1 X62.096 Y77.807 E0.02365
G1 X62.096 Y109.558 E0.99554
G1 X61.342 Y109.558 E0.02365
G1 X61.342 Y77.807 E0.99554
G1 X60.588 Y77.807 E0.02365
G1 X60.588 Y109.558 E0.99554
G1 X59.834 Y109.558 E0.02365
G1 X59.834 Y77.807 E0.99554
G1 X59.079 Y77.807 E0.02365
G1 X59.079 Y109.558 E0.99554
G1 X58.667 Y109.558 E0.01294
G1 X58.398 Y109.827 E0.01191
G1 X58.398 Y116.036 E0.19468
G1 X58.325 Y116.036 E0.00228
G1 X58.325 Y77.807 E1.19864
G1 X57.571 Y77.807 E0.02365
G1 X57.571 Y116.036 E1.19864
G1 X56.817 Y116.036 E0.02365
G1 X56.817 Y77.807 E1.19864
G1 X56.063 Y77.807 E0.02365
G1 X56.063 Y116.036 E1.19864
G1 X55.309 Y116.036 E0.02365
G1 X55.309 Y77.637 E1.20396
M204 S1250
G1 E-2.24000 F4200.000
;WIPE_START
G1 F7200.000
G1 X55.309 Y79.283 E-0.91200
;WIPE_END
G1 E-0.04800 F4200.000
G1 Z0.400 F9000.000
G1 X59.644 Y110.804
G1 Z0.200
G1 E3.20000 F2400.000
M204 S800
;TYPE:Perimeter
G1 F1200.000
G1 X65.036 Y110.804 E0.16908
G1 X65.036 Y115.804 E0.15677
G1 X70.036 Y115.804 E0.15677
G1 X70.036 Y121.196 E0.16908
G1 X59.644 Y121.196 E0.32585
G1 X59.644 Y110.864 E0.32397
M204 S1250
G1 E-2.24000 F4200.000
;WIPE_START
G1 F7200.000
G1 X61.289 Y110.845 E-0.91200
;WIPE_END
G1 E-0.04800 F4200.000
G1 Z0.400 F9000.000
G1 X65.413 Y115.427
G1 Z0.200
G1 E3.20000 F2400.000
M204 S800
;TYPE:External perimeter
G1 F1200.000
G1 X70.413 Y115.427 E0.15677
G1 X70.413 Y121.573 E0.19272
G1 X59.267 Y121.573 E0.34950
G1 X59.267 Y110.427 E0.34950
G1 X65.413 Y110.427 E0.19272
G1 X65.413 Y115.367 E0.15489
M204 S1250
G1 X65.530 Y115.809 F9000.000
G1 E-2.24000 F4200.000
;WIPE_START
G1 F7200.000
G1 X67.059 Y115.386 E-0.91200
;WIPE_END
G1 E-0.04800 F4200.000
G1 Z0.400 F9000.000
G1 X69.135 Y115.917
G1 Z0.200
G1 E3.20000 F2400.000
M204 S800
;TYPE:Solid infill
;WIDTH:0.432031
G1 F1200.000
G1 X69.753 Y116.535 E0.02828
G1 X69.753 Y117.085 E0.01780
G1 X68.755 Y116.087 E0.04570
G1 X68.204 Y116.087 E0.01780
G1 X69.753 Y117.636 E0.07088
G1 X69.753 Y118.186 E0.01780
G1 X67.654 Y116.087 E0.09606
G1 X67.104 Y116.087 E0.01780
G1 X69.753 Y118.736 E0.12123
G1 X69.753 Y119.286 E0.01780
G1 X66.554 Y116.087 E0.14641
G1 X66.003 Y116.087 E0.01780
G1 X69.753 Y119.837 E0.17159
G1 X69.753 Y120.387 E0.01780
G1 X65.283 Y115.917 E0.20454
M204 S1250
G1 E-2.24000 F4200.000
;WIPE_START
G1 F7200.000
G1 X66.447 Y117.081 E-0.91200
;WIPE_END
G1 E-0.04800 F4200.000
G1 Z0.400 F9000.000
G1 X64.923 Y111.705
G1 Z0.200
G1 E3.20000 F2400.000
M204 S800
G1 F1200.000
G1 X64.305 Y111.087 E0.02828
G1 X63.755 Y111.087 E0.01780
G1 X64.753 Y112.085 E0.04570
G1 X64.753 Y112.636 E0.01780
G1 X63.204 Y111.087 E0.07088
G1 X62.654 Y111.087 E0.01780
G1 X64.753 Y113.186 E0.09606
G1 X64.753 Y113.736 E0.01780
G1 X62.104 Y111.087 E0.12123
G1 X61.554 Y111.087 E0.01780
G1 X64.753 Y114.286 E0.14641
G1 X64.753 Y114.837 E0.01780
G1 X61.003 Y111.087 E0.17159
G1 X60.453 Y111.087 E0.01780
G1 X64.923 Y115.557 E0.20454
M204 S1250
G1 E-2.24000 F4200.000
;WIPE_START
G1 F7200.000
G1 X63.759 Y114.393 E-0.91200
;WIPE_END
G1 E-0.04800 F4200.000
G1 Z0.400 F9000.000
G1 X59.757 Y110.941
G1 Z0.200
G1 E3.20000 F2400.000
M204 S800
G1 F1200.000
G1 X69.730 Y120.913 E0.45632
G1 X69.179 Y120.913 E0.01780
G1 X59.927 Y111.661 E0.42338
G1 X59.927 Y112.211 E0.01780
G1 X68.629 Y120.913 E0.39820
G1 X68.079 Y120.913 E0.01780
G1 X59.927 Y112.761 E0.37302
G1 X59.927 Y113.311 E0.01780
G1 X67.529 Y120.913 E0.34784
G1 X66.978 Y120.913 E0.01780
G1 X59.927 Y113.862 E0.32266
G1 X59.927 Y114.412 E0.01780
G1 X66.428 Y120.913 E0.29748
G1 X65.878 Y120.913 E0.01780
G1 X59.927 Y114.962 E0.27230
